X:21
T:jer an rigeara
S:Brendan Breathnach
B:no 128
M:4|4
L:1/8
Q:1/2=128
K:Amix
|:e2A2 e2A2|efed c2A2 | d2dc defg | agfg e2f2|
e2A2 e2A2|efed c2A2 | d2fd c2ec | BABc A2f2:||
|:a2 ze  fece |a2 ze fecA | d2dc defg   | agfg e4|
a2 ze  fece |a2 ze fecA | d2 fd c2 ec | BA Bc A3 z :||
